X: 15
T: Earl's Chair, The
C: Pakie Moloney
Z: Slowssisson Marseille
S: https://thesession.org/tunes/221#setting50165
R: reel
M: 4/4
L: 1/8
K: Dmaj
|:B2 dB BAFA|B2 dB BAFB|AF>FF DF>FF|AFdB ADFA|
B2 dB BAFA|B2 dB BAFB|AFAB defd|1 edef d2cA:|2 edef d2Bd||
|:e3f d3f|edef dB AB|edef d>ddf|fedB AzBd|
e3fd B>BB|gB>BB defg|afbf afeg|1 fedB AzBd:|2 fedB AzFA||

